X: 42518
T: Wheels Of The World, The
R: reel
M: 4/4
K: Dmixolydian
B|ADED FAGF|E ~C3 G,CEG|A ~D3 FAde|=fedc Addc|
ADED FAGF|E~C3 G,CEG|A2dB cBAG|1 EDD E{G}ED d:|2 EDD E{G}ED AB||
c3e gecA|d2ad bdad|~c3d ed^cd|e~a3 edAB|
c3e gecA|d2ad bdad|abag efge|1 (3fga ge d2AB:|2 ~f3e d3||

